bernoullicharts/pow_x_2_1__bits.svg

<?xml version="1.0" encoding="utf-8" standalone="no"?>
<!DOCTYPE svg PUBLIC "-//W3C//DTD SVG 1.1//EN"
  "http://www.w3.org/Graphics/SVG/1.1/DTD/svg11.dtd">
<!-- Created with matplotlib (https://matplotlib.org/) -->
<svg height="345.6pt" version="1.1" viewBox="0 0 460.8 345.6" width="460.8pt" xmlns="http://www.w3.org/2000/svg" xmlns:xlink="http://www.w3.org/1999/xlink">
 <defs>
  <style type="text/css">
*{stroke-linecap:butt;stroke-linejoin:round;}
  </style>
 </defs>
 <g id="figure_1">
  <g id="patch_1">
   <path d="M 0 345.6 
L 460.8 345.6 
L 460.8 0 
L 0 0 
z
" style="fill:#ffffff;"/>
  </g>
  <g id="axes_1">
   <g id="patch_2">
    <path d="M 57.6 307.584 
L 414.72 307.584 
L 414.72 41.472 
L 57.6 41.472 
z
" style="fill:#ffffff;"/>
   </g>
   <g id="matplotlib.axis_1">
    <g id="xtick_1">
     <g id="line2d_1">
      <defs>
       <path d="M 0 0 
L 0 3.5 
" id="m7fa96a0f0b" style="stroke:#000000;stroke-width:0.8;"/>
      </defs>
      <g>
       <use style="stroke:#000000;stroke-width:0.8;" x="73.800255" xlink:href="#m7fa96a0f0b" y="307.584"/>
      </g>
     </g>
     <g id="text_1">
      <text style="font-family:DejaVu Sans;font-size:10px;font-style:normal;font-weight:normal;text-anchor:middle;" transform="rotate(-0, 73.800255, 322.182437)" x="73.800255" y="322.182437">0.0</text>
     </g>
    </g>
    <g id="xtick_2">
     <g id="line2d_2">
      <g>
       <use style="stroke:#000000;stroke-width:0.8;" x="138.744153" xlink:href="#m7fa96a0f0b" y="307.584"/>
      </g>
     </g>
     <g id="text_2">
      <text style="font-family:DejaVu Sans;font-size:10px;font-style:normal;font-weight:normal;text-anchor:middle;" transform="rotate(-0, 138.744153, 322.182437)" x="138.744153" y="322.182437">0.2</text>
     </g>
    </g>
    <g id="xtick_3">
     <g id="line2d_3">
      <g>
       <use style="stroke:#000000;stroke-width:0.8;" x="203.688051" xlink:href="#m7fa96a0f0b" y="307.584"/>
      </g>
     </g>
     <g id="text_3">
      <text style="font-family:DejaVu Sans;font-size:10px;font-style:normal;font-weight:normal;text-anchor:middle;" transform="rotate(-0, 203.688051, 322.182437)" x="203.688051" y="322.182437">0.4</text>
     </g>
    </g>
    <g id="xtick_4">
     <g id="line2d_4">
      <g>
       <use style="stroke:#000000;stroke-width:0.8;" x="268.631949" xlink:href="#m7fa96a0f0b" y="307.584"/>
      </g>
     </g>
     <g id="text_4">
      <text style="font-family:DejaVu Sans;font-size:10px;font-style:normal;font-weight:normal;text-anchor:middle;" transform="rotate(-0, 268.631949, 322.182437)" x="268.631949" y="322.182437">0.6</text>
     </g>
    </g>
    <g id="xtick_5">
     <g id="line2d_5">
      <g>
       <use style="stroke:#000000;stroke-width:0.8;" x="333.575847" xlink:href="#m7fa96a0f0b" y="307.584"/>
      </g>
     </g>
     <g id="text_5">
      <text style="font-family:DejaVu Sans;font-size:10px;font-style:normal;font-weight:normal;text-anchor:middle;" transform="rotate(-0, 333.575847, 322.182437)" x="333.575847" y="322.182437">0.8</text>
     </g>
    </g>
    <g id="xtick_6">
     <g id="line2d_6">
      <g>
       <use style="stroke:#000000;stroke-width:0.8;" x="398.519745" xlink:href="#m7fa96a0f0b" y="307.584"/>
      </g>
     </g>
     <g id="text_6">
      <text style="font-family:DejaVu Sans;font-size:10px;font-style:normal;font-weight:normal;text-anchor:middle;" transform="rotate(-0, 398.519745, 322.182437)" x="398.519745" y="322.182437">1.0</text>
     </g>
    </g>
    <g id="text_7">
     <text style="font-family:DejaVu Sans;font-size:10px;font-style:normal;font-weight:normal;text-anchor:middle;" transform="rotate(-0, 236.16, 335.860562)" x="236.16" y="335.860562">Probability</text>
    </g>
   </g>
   <g id="matplotlib.axis_2">
    <g id="ytick_1">
     <g id="line2d_7">
      <defs>
       <path d="M 0 0 
L -3.5 0 
" id="m3a55f53615" style="stroke:#000000;stroke-width:0.8;"/>
      </defs>
      <g>
       <use style="stroke:#000000;stroke-width:0.8;" x="57.6" xlink:href="#m3a55f53615" y="288.835754"/>
      </g>
     </g>
     <g id="text_8">
      <text style="font-family:DejaVu Sans;font-size:10px;font-style:normal;font-weight:normal;text-anchor:end;" transform="rotate(-0, 50.6, 292.634973)" x="50.6" y="292.634973">2.0</text>
     </g>
    </g>
    <g id="ytick_2">
     <g id="line2d_8">
      <g>
       <use style="stroke:#000000;stroke-width:0.8;" x="57.6" xlink:href="#m3a55f53615" y="233.400374"/>
      </g>
     </g>
     <g id="text_9">
      <text style="font-family:DejaVu Sans;font-size:10px;font-style:normal;font-weight:normal;text-anchor:end;" transform="rotate(-0, 50.6, 237.199593)" x="50.6" y="237.199593">2.5</text>
     </g>
    </g>
    <g id="ytick_3">
     <g id="line2d_9">
      <g>
       <use style="stroke:#000000;stroke-width:0.8;" x="57.6" xlink:href="#m3a55f53615" y="177.964994"/>
      </g>
     </g>
     <g id="text_10">
      <text style="font-family:DejaVu Sans;font-size:10px;font-style:normal;font-weight:normal;text-anchor:end;" transform="rotate(-0, 50.6, 181.764212)" x="50.6" y="181.764212">3.0</text>
     </g>
    </g>
    <g id="ytick_4">
     <g id="line2d_10">
      <g>
       <use style="stroke:#000000;stroke-width:0.8;" x="57.6" xlink:href="#m3a55f53615" y="122.529613"/>
      </g>
     </g>
     <g id="text_11">
      <text style="font-family:DejaVu Sans;font-size:10px;font-style:normal;font-weight:normal;text-anchor:end;" transform="rotate(-0, 50.6, 126.328832)" x="50.6" y="126.328832">3.5</text>
     </g>
    </g>
    <g id="ytick_5">
     <g id="line2d_11">
      <g>
       <use style="stroke:#000000;stroke-width:0.8;" x="57.6" xlink:href="#m3a55f53615" y="67.094233"/>
      </g>
     </g>
     <g id="text_12">
      <text style="font-family:DejaVu Sans;font-size:10px;font-style:normal;font-weight:normal;text-anchor:end;" transform="rotate(-0, 50.6, 70.893452)" x="50.6" y="70.893452">4.0</text>
     </g>
    </g>
    <g id="text_13">
     <text style="font-family:DejaVu Sans;font-size:10px;font-style:normal;font-weight:normal;text-anchor:middle;" transform="rotate(-90, 28.617187, 174.528)" x="28.617187" y="174.528">Average Bits Consumed Per Call</text>
    </g>
   </g>
   <g id="line2d_12">
    <path clip-path="url(#p2a8fc31ab6)" d="M 73.832727 269.544242 
L 77.112066 288.614013 
L 80.391405 295.488 
L 83.670744 263.113738 
L 86.950083 277.748678 
L 90.229421 272.870365 
L 93.50876 276.639971 
L 96.788099 256.461492 
L 100.067438 277.526937 
L 103.346777 264.665929 
L 106.626116 264.000704 
L 109.905455 255.352785 
L 113.184793 270.874691 
L 116.464132 274.644297 
L 119.743471 255.131043 
L 123.02281 252.691886 
L 126.302149 248.92228 
L 129.581488 244.709192 
L 132.860826 227.191611 
L 136.140165 256.461492 
L 139.419504 241.60481 
L 142.698843 249.144022 
L 145.978182 246.926607 
L 149.257521 220.982849 
L 152.53686 240.717844 
L 155.816198 233.400374 
L 159.095537 215.439311 
L 162.374876 227.856836 
L 165.654215 220.317624 
L 168.933554 231.182959 
L 172.212893 212.113188 
L 175.492231 211.00448 
L 178.77157 206.791391 
L 182.050909 197.699989 
L 185.330248 224.530713 
L 188.609587 207.013133 
L 191.888926 200.80437 
L 195.168264 199.695663 
L 198.447603 210.117514 
L 201.726942 197.699989 
L 205.006281 214.995828 
L 208.28562 211.891446 
L 211.564959 186.834654 
L 214.844298 196.147798 
L 218.123636 209.008807 
L 221.402975 189.939036 
L 224.682314 187.721621 
L 227.961653 180.40415 
L 231.240992 159.560447 
L 234.520331 185.947688 
L 237.799669 175.747578 
L 241.079008 172.199714 
L 244.358347 165.547468 
L 247.637686 167.764884 
L 250.917025 168.430108 
L 254.196364 172.421456 
L 257.475702 169.317074 
L 260.755041 162.221346 
L 264.03438 163.773536 
L 267.313719 163.551795 
L 270.593058 141.155901 
L 273.872397 156.899549 
L 277.151736 140.047193 
L 280.431074 135.834104 
L 283.710413 122.973096 
L 286.989752 136.499329 
L 290.269091 152.908202 
L 293.54843 133.173206 
L 296.827769 110.112088 
L 300.107107 116.986075 
L 303.386446 141.821126 
L 306.665785 134.947138 
L 309.945124 111.664279 
L 313.224463 137.164554 
L 316.503802 140.490676 
L 319.78314 126.964444 
L 323.062479 108.338156 
L 326.341818 113.438211 
L 329.621157 118.094783 
L 332.900496 101.242427 
L 336.179835 114.546918 
L 339.459174 94.811923 
L 342.738512 101.464169 
L 346.017851 99.025012 
L 349.29719 99.690236 
L 352.576529 108.559897 
L 355.855868 109.890346 
L 359.135207 102.129393 
L 362.414545 88.159677 
L 365.693884 86.607487 
L 368.973223 108.116414 
L 372.252562 96.585855 
L 375.531901 87.937936 
L 378.81124 69.311648 
L 382.090579 93.703215 
L 385.369917 66.207267 
L 388.649256 71.08558 
L 391.928595 75.963894 
L 395.207934 53.568 
L 398.487273 65.542042 
" style="fill:none;stroke:#1f77b4;stroke-linecap:square;stroke-width:1.5;"/>
   </g>
   <g id="patch_3">
    <path d="M 57.6 307.584 
L 57.6 41.472 
" style="fill:none;stroke:#000000;stroke-linecap:square;stroke-linejoin:miter;stroke-width:0.8;"/>
   </g>
   <g id="patch_4">
    <path d="M 414.72 307.584 
L 414.72 41.472 
" style="fill:none;stroke:#000000;stroke-linecap:square;stroke-linejoin:miter;stroke-width:0.8;"/>
   </g>
   <g id="patch_5">
    <path d="M 57.6 307.584 
L 414.72 307.584 
" style="fill:none;stroke:#000000;stroke-linecap:square;stroke-linejoin:miter;stroke-width:0.8;"/>
   </g>
   <g id="patch_6">
    <path d="M 57.6 41.472 
L 414.72 41.472 
" style="fill:none;stroke:#000000;stroke-linecap:square;stroke-linejoin:miter;stroke-width:0.8;"/>
   </g>
   <g id="text_14">
    <text style="font-family:DejaVu Sans;font-size:12px;font-style:normal;font-weight:normal;text-anchor:middle;" transform="rotate(-0, 236.16, 35.472)" x="236.16" y="35.472">Avg. Bits Consumed by pow(x,2/1) Algorithm</text>
   </g>
   <g id="legend_1">
    <g id="patch_7">
     <path d="M 64.6 64.150125 
L 150.239062 64.150125 
Q 152.239062 64.150125 152.239062 62.150125 
L 152.239062 48.472 
Q 152.239062 46.472 150.239062 46.472 
L 64.6 46.472 
Q 62.6 46.472 62.6 48.472 
L 62.6 62.150125 
Q 62.6 64.150125 64.6 64.150125 
z
" style="fill:#ffffff;opacity:0.8;stroke:#cccccc;stroke-linejoin:miter;"/>
    </g>
    <g id="line2d_13">
     <path d="M 66.6 54.570438 
L 86.6 54.570438 
" style="fill:none;stroke:#1f77b4;stroke-linecap:square;stroke-width:1.5;"/>
    </g>
    <g id="line2d_14"/>
    <g id="text_15">
     <text style="font-family:DejaVu Sans;font-size:10px;font-style:normal;font-weight:normal;text-anchor:start;" transform="rotate(-0, 94.6, 58.070438)" x="94.6" y="58.070438">pow(x,2/1)</text>
    </g>
   </g>
  </g>
 </g>
 <defs>
  <clipPath id="p2a8fc31ab6">
   <rect height="266.112" width="357.12" x="57.6" y="41.472"/>
  </clipPath>
 </defs>
</svg>

<svg height="460.8" viewBox="0 0 460.8 345.6" width="614.4" xmlns="http://www.w3.org/2000/svg" xmlns:xlink="http://www.w3.org/1999/xlink"><defs><style>*{stroke-linecap:butt;stroke-linejoin:round}</style></defs><g id="figure_1"><path d="M0 345.6h460.8V0H0z" fill="#fff" id="patch_1"/><g id="axes_1"><path d="M57.6 307.584h357.12V41.472H57.6z" fill="#fff" id="patch_2"/><g id="matplotlib.axis_1"><g id="xtick_1"><g id="line2d_1"><defs><path d="M0 0v3.5" id="m7fa96a0f0b" stroke="#000" stroke-width=".8"/></defs><use x="73.8" xlink:href="#m7fa96a0f0b" y="307.584" stroke="#000" stroke-width=".8"/></g><text x="73.8" y="322.182" font-family="DejaVu Sans" font-size="10" font-weight="400" text-anchor="middle" id="text_1">0.0</text></g><g id="xtick_2"><use x="138.744" xlink:href="#m7fa96a0f0b" y="307.584" stroke="#000" stroke-width=".8" id="line2d_2"/><text x="138.744" y="322.182" font-family="DejaVu Sans" font-size="10" font-weight="400" text-anchor="middle" id="text_2">0.2</text></g><g id="xtick_3"><use x="203.688" xlink:href="#m7fa96a0f0b" y="307.584" stroke="#000" stroke-width=".8" id="line2d_3"/><text x="203.688" y="322.182" font-family="DejaVu Sans" font-size="10" font-weight="400" text-anchor="middle" id="text_3">0.4</text></g><g id="xtick_4"><use x="268.632" xlink:href="#m7fa96a0f0b" y="307.584" stroke="#000" stroke-width=".8" id="line2d_4"/><text x="268.632" y="322.182" font-family="DejaVu Sans" font-size="10" font-weight="400" text-anchor="middle" id="text_4">0.6</text></g><g id="xtick_5"><use x="333.576" xlink:href="#m7fa96a0f0b" y="307.584" stroke="#000" stroke-width=".8" id="line2d_5"/><text x="333.576" y="322.182" font-family="DejaVu Sans" font-size="10" font-weight="400" text-anchor="middle" id="text_5">0.8</text></g><g id="xtick_6"><use x="398.52" xlink:href="#m7fa96a0f0b" y="307.584" stroke="#000" stroke-width=".8" id="line2d_6"/><text x="398.52" y="322.182" font-family="DejaVu Sans" font-size="10" font-weight="400" text-anchor="middle" id="text_6">1.0</text></g><text x="236.16" y="335.861" font-family="DejaVu Sans" font-size="10" font-weight="400" text-anchor="middle" id="text_7">Probability</text></g><g id="matplotlib.axis_2"><g id="ytick_1"><g id="line2d_7"><defs><path d="M0 0h-3.5" id="m3a55f53615" stroke="#000" stroke-width=".8"/></defs><use x="57.6" xlink:href="#m3a55f53615" y="288.836" stroke="#000" stroke-width=".8"/></g><text x="50.6" y="292.635" font-family="DejaVu Sans" font-size="10" font-weight="400" text-anchor="end" id="text_8">2.0</text></g><g id="ytick_2"><use x="57.6" xlink:href="#m3a55f53615" y="233.4" stroke="#000" stroke-width=".8" id="line2d_8"/><text x="50.6" y="237.2" font-family="DejaVu Sans" font-size="10" font-weight="400" text-anchor="end" id="text_9">2.5</text></g><g id="ytick_3"><use x="57.6" xlink:href="#m3a55f53615" y="177.965" stroke="#000" stroke-width=".8" id="line2d_9"/><text x="50.6" y="181.764" font-family="DejaVu Sans" font-size="10" font-weight="400" text-anchor="end" id="text_10">3.0</text></g><g id="ytick_4"><use x="57.6" xlink:href="#m3a55f53615" y="122.53" stroke="#000" stroke-width=".8" id="line2d_10"/><text x="50.6" y="126.329" font-family="DejaVu Sans" font-size="10" font-weight="400" text-anchor="end" id="text_11">3.5</text></g><g id="ytick_5"><use x="57.6" xlink:href="#m3a55f53615" y="67.094" stroke="#000" stroke-width=".8" id="line2d_11"/><text x="50.6" y="70.893" font-family="DejaVu Sans" font-size="10" font-weight="400" text-anchor="end" id="text_12">4.0</text></g><text transform="rotate(-90 28.617 174.528)" x="28.617" y="174.528" font-family="DejaVu Sans" font-size="10" font-weight="400" text-anchor="middle" id="text_13">Average Bits Consumed Per Call</text></g><path clip-path="url(#p2a8fc31ab6)" d="M73.833 269.544l3.28 19.07 3.278 6.874 3.28-32.374 3.28 14.635 3.278-4.879 3.28 3.77 3.28-20.179 3.278 21.066 3.28-12.861 3.28-.665 3.278-8.648 3.28 15.522 3.28 3.77 3.278-19.514 3.28-2.44 3.28-3.769 3.278-4.213 3.28-17.517 3.28 29.27 3.279-14.857 3.279 7.539 3.28-2.217 3.279-25.944 3.279 19.735 3.28-7.318 3.279-17.96 3.279 12.417 3.28-7.54 3.279 10.866 3.279-19.07 3.28-1.109 3.279-4.213 3.279-9.091 3.28 26.83 3.279-17.517 3.279-6.209 3.28-1.108 3.279 10.422 3.279-12.418 3.28 17.296 3.279-3.105 3.279-25.056 3.28 9.313 3.279 12.86 3.279-19.069 3.28-2.217 3.279-7.318 3.279-20.844 3.28 26.388 3.279-10.2 3.279-3.548 3.28-6.653 3.279 2.218 3.279.665 3.28 3.991 3.279-3.104 3.279-7.096 3.28 1.553 3.279-.222 3.28-22.396 3.278 15.744 3.28-16.853 3.28-4.213 3.278-12.86 3.28 13.525 3.28 16.41 3.278-19.736 3.28-23.06 3.28 6.873 3.278 24.835 3.28-6.874 3.28-23.283 3.278 25.5 3.28 3.327 3.28-13.527 3.278-18.626 3.28 5.1 3.28 4.657 3.278-16.853 3.28 13.305 3.28-19.735 3.279 6.652 3.279-2.439 3.28.665 3.279 8.87 3.279 1.33 3.28-7.76 3.279-13.97 3.279-1.553 3.28 21.51 3.279-11.531 3.279-8.648 3.28-18.626 3.279 24.391 3.279-27.496 3.28 4.879 3.279 4.878 3.279-22.396 3.28 11.974" fill="none" stroke="#1f77b4" stroke-linecap="square" stroke-width="1.5" id="line2d_12"/><path d="M57.6 307.584V41.472" fill="none" stroke="#000" stroke-linecap="square" stroke-width=".8" id="patch_3"/><path d="M414.72 307.584V41.472" fill="none" stroke="#000" stroke-linecap="square" stroke-width=".8" id="patch_4"/><path d="M57.6 307.584h357.12" fill="none" stroke="#000" stroke-linecap="square" stroke-width=".8" id="patch_5"/><path d="M57.6 41.472h357.12" fill="none" stroke="#000" stroke-linecap="square" stroke-width=".8" id="patch_6"/><text x="236.16" y="35.472" font-family="DejaVu Sans" font-size="12" font-weight="400" text-anchor="middle" id="text_14">Avg. Bits Consumed by pow(x,2/1) Algorithm</text><g id="legend_1"><path d="M64.6 64.15h85.64q2 0 2-2V48.472q0-2-2-2H64.6q-2 0-2 2V62.15q0 2 2 2z" fill="#fff" opacity=".8" stroke="#ccc" id="patch_7"/><path d="M66.6 54.57h20" fill="none" stroke="#1f77b4" stroke-linecap="square" stroke-width="1.5" id="line2d_13"/><text x="94.6" y="58.07" font-family="DejaVu Sans" font-size="10" font-weight="400" id="text_15">pow(x,2/1)</text></g></g></g><defs><clipPath id="p2a8fc31ab6"><path d="M57.6 41.472h357.12v266.112H57.6z"/></clipPath></defs></svg>
